X:1
T:Jesus nimmt die Sünder an
T:BWV 113/5
T:Johann Sebastian Bach arr. André Papillon 
%%score 1 { ( 2 4 ) | 3 }
L:1/8
Q:1/4=72
M:4/4
K:D
V:1 treble nm="Flûte, Flute"
V:2 treble nm="Piano, Keyboard"
V:4 treble 
V:3 bass 
V:1
 f2 e/d/e/f/ dd/c/ dA | fe z2 g2 f/e/f/g/ | ee/d/ eA gf z/ e/d/e/ | %3
 f/^g/a/b/ c'/d'/e/d/ e/f/g/a/ b/c'/d/c/ | d/e/f/^g/ a/b/c/B/ (3c/B/A/(3d/c/B/ (3e/d/c/(3f/e/d/ | %5
 (3^g/f/e/(3a/g/f/ (3b/a/g/(3c'/b/a/ (3d'/c'/b/c'/a/ g>a | %6
 a2 z a ^d/4c/4d/4e/4f/4e/4d/4c/4 B/4A/4B/4=c/4B/4A/4G/4F/4 | %7
 G/4F/4G/4A/4B/4A/4G/4F/4 E/G/B/e/ g/4f/4g/4a/4b/4a/4g/4f/4 e/4d/4e/4f/4e/4d/4c/4B/4 | %8
 c/4B/4c/4d/4e/4d/4c/4B/4 A/4G/4A/4B/4A/4G/4F/4E/4 F/A/d/f/ a/d'/a/f/ | %9
 e/4g/4f/4e/4d/4f/4e/4d/4 c/4e/4d/4c/4B/4d/4c/4B/4 A/d/f/a/ d'/f'/d'/a/ | %10
 ^g/4b/4a/4g/4f/4a/4g/4f/4 e/4g/4f/4e/4d/4f/4e/4d/4 c/4d/4c/4B/4A/4B/4c/4d/4 e/4f/4e/4d/4c/4d/4e/4f/4 | %11
 g/4a/4g/4f/4e/4f/4g/4a/4 b/4c'/4b/4a/4g/4a/4b/4c'/4 d'/c'/4b/4a/g/ fe/d/ | d2 z2 z4 | %13
 A/c/e/a/ c'/e'/c'/a/ e/c/A z2 | z4 A/d/f/a/ d'/f'/d'/a/ | f/d/A z/ d/c/d/ e/f/^g/a/ b/c'/e/d/ | %16
 e2 z/ c/B/c/ d/e/f/^g/ a/b/d/c/ | d z z2 E/^G/B/d/ ^g/b/g/d/ | c2 B/A/B/c/ AA/^G/ AE | cB z2 z4 | %20
 c2 B/^A/B/c/ AA/^G/ AF | ed z2 z4 | e2 d/c/d/e/ cc/B/ cA | f2 e/d/e/f/ dd/c/ dA | %24
 fe z2 g2 f/e/f/g/ | ee/d/ eA gf z/ e/d/e/ | f/^g/a/b/ c'/d'/e/d/ e/f/g/a/ b/c'/d/c/ | %27
 d/e/f/^g/ a/b/c/B/ (3c/B/A/(3d/c/B/ (3e/d/c/(3f/e/d/ | %28
 (3^g/f/e/(3a/g/f/ (3b/a/g/(3c'/b/a/ d' z z2 | c2 B/A/B/c/ AA/^G/ AE | cB z2 d2 c/B/c/d/ | %31
 BB/A/ BE dc z c | B/4d/4c/4B/4A/4c/4B/4A/4 ^G/4B/4A/4G/4F/4A/4G/4F/4 E/A/c/e/ a/c'/a/f/ | %33
 ^d/4f/4e/4d/4c/4e/4d/4c/4 B/4d/4c/4B/4A/4c/4B/4A/4 ^G/4A/4G/4F/4E/4F/4G/4A/4 B/4c/4B/4A/4G/4A/4B/4c/4 | %34
 d/4e/4d/4c/4B/4c/4d/4e/4 f/4^g/4f/4e/4d/4e/4f/4g/4 a/g/4f/4e/d/ cB/A/ | A2 z2 z4 | %36
 c2 B/^A/B/c/ AA/^G/ AF | ed c/B/c/d/ BB/^A/ BF | fe d/c/d/e/ cc/B/ cF | gf z2 z4 | %40
 z4 f2 e/d/e/f/ | dd/c/ dB b^a z2 | z4 d2 c/B/c/d/ | BB/^A/ BF dc z2 | e2 d/c/d/e/ cc/B/ cF | %45
 ed/e/ (3f/e/d/(3^g/f/e/ (3^a/g/f/(3b/a/g/ (3c'/b/a/(3d'/c'/b/ | e'/d'/4c'/4d'/b/ ^a>b b2 z2 | z8 | %48
 z4 B2 A/G/A/B/ | GG/F/ GE d(3c/B/A/ (3d/c/B/(3e/d/c/ | (3f/e/d/(3g/f/e/ (3a/g/f/b/d/ c2 z2 | z8 | %52
 c2 B/A/B/c/ AA/^G/ AF | f^e z2 z4 | a2 ^g/f/g/a/ ff/^e/ fc | a^g z2 b2 a/g/a/b/ | %56
 ^gg/f/ gc ba z2 | A2 G/F/G/A/ FF/E/ F/A/d | dc z2 e2 d/c/d/e/ | cG/F/ G/c/e ed/f/ a/=c'/a/f/ | %60
 d/B/G z2 z A/c/ e/g/e/c/ | A/F/D z2 z/ B/A/B/ c/d/e/f/ | g/e/d/e/ f/g/a/b/ d/c/B/A/ B/c/d/e/ | %63
 f2 e/d/e/f/ dd/c/ dA | fe z2 z4 | f2 e/^d/e/f/ dd/c/ dB | ag z2 z4 | a2 g/f/g/a/ ff/e/ fd | %68
 b2 a/g/a/b/ gg/f/ gd | ba z2 =c'2 b/a/b/c'/ | aa/g/ ad =c'b z a | %71
 ^g/4b/4a/4g/4f/4a/4g/4f/4 e/4g/4f/4e/4d/4f/4e/4d/4 c/4d/4c/4B/4A/4B/4c/4d/4 e/4f/4e/4d/4c/4d/4e/4f/4 | %72
 g/4a/4g/4f/4e/4f/4g/4a/4 b/4c'/4b/4a/4g/4a/4b/4c'/4 d'/c'/4b/4a/g/ fe/d/ | d z z2 z4 | z8 | %75
 f2 e/d/e/f/ dd/c/ dA | fe z2 g2 f/e/f/g/ | ee/d/ eA gf z/ e/d/e/ | %78
 f/^g/a/b/ c'/d'/e/d/ e/f/g/a/ b/c'/d/c/ | d/e/f/^g/ a/b/c/B/ (3c/B/A/(3d/c/B/ (3e/d/c/(3f/e/d/ | %80
 (3^g/f/e/(3a/g/f/ (3b/a/g/(3c'/b/a/ (3d'/c'/b/c'/a/ g>a | %81
 a2 z a ^d/4c/4d/4e/4f/4e/4d/4c/4 B/4A/4B/4=c/4B/4A/4G/4F/4 | %82
 G/4F/4G/4A/4B/4A/4G/4F/4 E/G/B/e/ g/4f/4g/4a/4b/4a/4g/4f/4 e/4d/4e/4f/4e/4d/4c/4B/4 | %83
 c/4B/4c/4d/4e/4d/4c/4B/4 A/4G/4A/4B/4A/4G/4F/4E/4 F/A/d/f/ a/d'/a/f/ | %84
 e/4g/4f/4e/4d/4f/4e/4d/4 c/4e/4d/4c/4B/4d/4c/4B/4 A/d/f/a/ d'/f'/d'/a/ | %85
 ^g/4b/4a/4g/4f/4a/4g/4f/4 e/4g/4f/4e/4d/4f/4e/4d/4 c/4d/4c/4B/4A/4B/4c/4d/4 e/4f/4e/4d/4c/4d/4e/4f/4 | %86
 g/4a/4g/4f/4e/4f/4g/4a/4 b/4c'/4b/4a/4g/4a/4b/4c'/4 d'/c'/4b/4a/g/ fe/d/ | d2 z2 z4 |] %88
V:2
 [FA]2 [CA]2 [DA]4 | dc z2 [EA]2 [FA]2 | [EA]4 A4 | [FB]2 z [D^G] [EA]2 z [CF] | [DE^G]4 [CEA]4 | %5
w: |||||
 ^G4 A2 B2 | [CA]4 [^DA] z [B,F] z | [B,E] z [B,E] z [EA] z [EG] z | [CG] z [A,E] z [A,D]3 [DF] | %9
w: ||||
 [CE]2 z2 [DF]4 | ^GB z2 [CA] z [EA] z | [CA] z [CA] z z [DA]2 [CG] | f2 e/d/e/f/ d d/c/ d A | %13
w: |||Je- sus _ _ _ nimmt~ die~ _ Sün- der~|
 fe z2 g2 f/e/f/g/ | e e/d/ e A gf z2 | fd BA ^G2 z2 | ec BA f2 z A | ^Gd- d/B/ c c B z2 | %18
w: an,~ _ Je sus~ _ _ _|nimmt~ die~ _ Sün- der~ an:~ _|sü- * sses _ Wort,|sü- * sses~ _ Wort voll|Trost _ _ _ und~ Le ben,~|
 [CE]2 [^G,E]2 [A,E]4 | e2 d/c/d/e/ c c/B/ c A | gf z2 [^A,C]4 | f2 e/d/e/f/ d d/c/ d B | %22
w: |Je sus~ _ _ _ nimmt~ die~ _ Sün- der~|an:~ _ _|sü- sses~ _ _ _ Wort~ voll~ _ Trost~ und~|
 a g z2 z4 | A2 G/F/G/A/ F F/E/ F/A/ d | dc z2 e2 d/c/d/e/ | c G/F/ G e ed z2 | %26
w: Le ben~|Je sus~ _ _ _ nimmt~ die~ _ Sün- * der~|an,~ _ Je- sus~ _ _ _|nimmt~ die~ _ Sün- der~ an:~ _|
 z2 e/d/ c/B/ ^g2 z a | B/c/d/e/ f e c/d/e- e/f/4e/4d/e/4c/4 | %28
w: sü- * sses~ _ Wort~ voll~|Trost~ _ _ _ _ und~ Le- * * * * * * * *|
 B/c/d- d/e/4d/4c/d/4B/4 A/f/e/d/ cB/A/ | A2 [^G,E]2 [A,E]4 | A^G z2 B2 A2 | [B,E]4 [CE]4 | %32
w: |ben!~ * *|||
 [E^G]2 z2 A,2 C2 | ^DF z2 [^G,B,] z [B,E] z | [D^G] z [GB] z z A/B/ AG | e2 d/c/ d/e/ c c/B/ c A | %36
w: |||Er~ schenkt~ _ die~ _ wah- re~ _ See- len|
 g f3- f4- | f8- | f8 | z B a f g f/e/ d/c/ e | ^A2 c2 d2 e2 | f3 e dc/d/ e/d/g/f/ | %42
w: ruh'~ _ _|_||und ru- fet~ Je- dem~ _ tröst- * lich~|zu:~ dein'~ Sünd'~ ist~|dir~ ver- ge- * * * * * *|
 d2 c/B/c/d/ B2 [^A,F]2 | [B,F]4 B^A z2 | F8 | [DF]4 [CF]4 | EGFE f2 e/d/ c/B/ | %47
w: * * * * * ben.~ *||||* * * * er schenk _ die _|
 g g/f/ g e c e d/c/ B/A/ | d/e/f/g/ a =c B4- | B4- B A B c | d e f/e/ g e c f e | %51
w: wah- re~ _ See- len ruh',~ die~ wah- * re~ _|See- * * * * len ruh'~|_ _ er~ schenkt~ die~|wah- re~ See- * len ruh'~ und~ ru- fet~|
 d c/B/ ^g/^e/ f e2 ^G2 | A2 B2 c3 B | A^G/A/ B/A/d/c/ A2 G/F/G/A/ | F2 [C^E]2 [CF]4 | %55
w: Je- dem~ * tröst- * lich~ zu:~ dein'~|Sünd'~ ist~ dir~ ver|ge- * * * * * * * * * * *|ben.~ * *|
 F^EBA ^G2 F2 | ^G4 GF z2 | f2 e/d/e/f/ d d/c/ d A | fe z2 g2 f/e/f/g/ | e e/d/ e A gf z2 | %60
w: ||Je- sus _ _ _ nimmt~ die~ _ Sün- der~|an,~ _ Je sus~ _ _ _|nimmt~ die~ _ Sün- der~ an:~ _|
 fe- e/ d/c/d/ c2 z2 | a =c2 c B2 z A | Ge- e/c/ d f/e/ e z2 | [FA]2 [CA]2 [DA]4 | %64
w: sü- * * sses _ _ Wort,~|sü- * sses~ Wort~ voll~|Trost _ _ _ und~ Le- * ben,~||
 A2 G/F/G/A/ F F/E/ F D | =cB z2 [^DF]4 | B2 A/G/A/B/ G G/F/ G E | d c z2 [FA]4 | %68
w: Je sus~ _ _ _ nimmt~ die~ _ Sün- der~|an:~ _ _|sü- sses~ * * * Wort~ voll~ _ Trost~ und~|Le ben,~ *|
 d2 =c/B/c/d/ B B/A/ B/d/ g | gf z2 fg/a/ g2 | f =c/B/ c A AG/ A/ B/^c/ d | d2 z ^G A/B/c- c/d/e- | %72
w: Je sus~ _ _ _ nimmt~ die~ _ Sün- * der~|an,~ _ Je- * * sus~|nimmt~ die~ _ Sün- der~ an:~ _ O sü- * sses~|Wort~ voll~ Trost~ _ _ _ _ _|
 e/f/ g2 f/e/ f/d/ e z2 | =c2- c/B/c B G E/^c/ d/B/ | %74
w: _ _ _ und~ _ Le- * ben,~|sü- * * sses~ Wort~ voll~ Trost~ _ und~ _|
 (3c/B/A/(3d/c/B/ (3e/d/c/(3f/e/d/ g/f/4e/4f/d/ c>d | d2 [CA]2 [DA]4 | dc z2 [EA]2 [FA]2 | %77
w: Le- * * * * * * * * * * * * * * * * * *|ben!~ * *||
 [EA]4 A4 | [FB]2 z [D^G] [EA]2 z [CF] | [DE^G]4 [CEA]4 | ^G4 A2 B2 | [CA]4 [^DA] z [B,F] z | %82
w: |||||
 [B,E] z [B,E] z [EA] z [EG] z | [CG] z [A,E] z [A,D]3 [DF] | [CE]2 z2 [DF]4 | %85
w: |||
 ^GB z2 [CA] z [EA] z | [CA] z [CA] z z [DA]2 [CG] | [DF]2 z2 z4 |] %88
w: |||
V:3
 D,/E,/F,/G,/ A,G, F,E,F,D, | A,/B,/C/D/ ED CA,DA, | CA,/B,/ CA, DD,F,A, | D2 z B, C2 z A, | %4
 B,^G,F,E, A,B,CD | E,F,^G,A, F,D,E,E,, | A,,A,/B,/ A,G, F, z ^D, z | E, z D, z C, z B,, z | %8
 A,, z C, z D,F,F,D, | A,A,, z2 F,A,A,F, | B,,^G, z2 A,, z C, z | E, z G, z z F,/G,/ A,A,, | %12
 D,/E,/F,/G,/ A,G, F,E,F,D, | A,A,, z2 C,A,D,A, | A,,A,/B,/ CA, DD, z2 | D,D,, D,4 z2 | %16
 C,C,, C,4 z C, | B,,^G,,A,,D,, E,,E, z2 | A,,/B,,/C,/D,/ E,D, C,B,,C,A,, | %19
 E,/F,/^G,/A,/ B,G, A,E,A,, z | ^A,,/B,,/C,/D,/ E,C, F,E,D,C, | B,,/C,/D,/E,/ F,^A,, B,,F,B,G, | %22
 C,/D,/E,/F,/ G,E, A,G,F,E, | D,/E,/F,/G,/ A,C DA,F,D, | A,,/B,,/C,/D,/ E,D, C,A,,D,A,, | %25
 A,E,C,A,, D,/E,/F,/G,/ A,F, | D,D,, z D,- D,E,/D,/ C,F, | ^G,F,E,G, A,B,,C,D, | %28
 E,F,^G,A, F,C,/D,/ E,E,, | A,,/B,,/C,/D,/ E,D, C,B,,C,A,, | E,/F,/^G,/A,/ B,A, G,E,A,E, | %31
 ^G,E,/F,/ G,E, A,E,C,A,, | E,E,, z2 C,E,A,,C, | F,,^D, z2 E, z ^G, z | B, z D z z C,/D,/ E,E,, | %35
 A,, A,2 ^G, A,,/B,,/C,/D,/ E,C, | ^A,,B,,C,D, E,F,/E,/ D,C, | B,,/C,/D,/E,/ F,E, D,C,D,B,, | %38
 ^A,,C,F,,B,, A,,/B,,/C,/D,/ E,D,/C,/ | D,2 z ^D, E,F,G,E, | F,^G,^A,F, B,DC=A, | %41
 D,E,F,G, F,E,/D,/ C,B,, | F,E,F,F,, B,,/C,/D,/E,/ F,E, | D,C,D,B,, F,/^G,/^A,/B,/ CB, | %44
 ^A,F,B,F, A,F,/^G,/ A,F, | B,,C,D,E, F,^G,^A,B, | =G,E,F,F,, B,,/C,/D,/E,/ F,B, | %47
 E,D,C,B,, A,, A,2 G, | F,E,F,D, G,F,/E,/ ^D,B,, | E,/F,/G,/A,/ B,G, A,4- | A,6 z ^A, | %51
 B,CDB, CC,/^D,/ ^E,C, | F,A,^G,E, A,,B,,C,D, | C,B,,/A,,/ ^G,,F,, C,B,,C,C,, | %54
 F,,/^G,,/A,,/B,,/ C,B,, A,,G,,A,,F,, | C,/^D,/^E,/F,/ ^G,F, E,C,F,C, | %56
 ^E,C,/^D,/ E,C, F,F,,F,=E, | D,/E,/F,/G,/ A,C, D,A,,F,,D,, | A,,/B,,/C,/D,/ E,D, C,A,,D,A,, | %59
 A,E,C,A,, D,D,, z F, | G,G,,^G,,E,, A,,A, z G, | F,A,F,D, G,A,G,F, | E,C,D,F, A,G,F,E, | %63
 D,/E,/F,/G,/ A,G, F,E,F,D, | A,,/B,,/C,/D,/ E,C, D,A,,D,, z | ^D,/E,/F,/G,/ A,F, B,A,G,F, | %66
 E,/F,/G,/A,/ B,^D, E,B,,E,C, | F,/G,/A,/B,/ CA, D=CB,A, | G,/A,/B,/=C/ DF, G,D,B,,G,, | %69
 D,/E,/F,/G,/ A,F, D,F,G,D, | DA,F,D G,A,G,F, | E,F,^G,E, A,,A,A,A,, | A,,2 z C B,G,A,A,, | %73
 F,,A,,F,,D,, G,,B,,^G,,E,, | A,,B,,C,D, B,,G,,A,,A,, | D,/E,/F,/G,/ A,G, F,E,F,D, | %76
 A,/B,/C/D/ ED CA,DA, | CA,/B,/ CA, DD,F,A, | D2 z B, C2 z A, | B,^G,F,E, A,B,CD | %80
 E,F,^G,A, F,D,E,E,, | A,,A,/B,/ A,G, F, z ^D, z | E, z D, z C, z B,, z | A,, z C, z D,F,F,D, | %84
 A,A,, z2 F,A,A,F, | B,,^G, z2 A,, z C, z | E, z G, z z F,/G,/ A,A,, | D,2 z2 z4 |] %88
V:4
 x8 | E2 x6 | x4 E D3 | x8 | x8 | B,2 E2 DFED | x8 | x8 | x8 | x8 | D2 x6 | x8 | x8 | x8 | x8 | %15
 x8 | x8 | x8 | x8 | x8 | x8 | x8 | x8 | x8 | x8 | x8 | x8 | x8 | x8 | x8 | E2 x2 E4 | x8 | x8 | %33
 B,2 x6 | x5 E2 D | x8 | x4 [Fc]2 z2 | [FB]2 z2 F2 z2 | [Fc]2 z2 F2 z2 | x8 | x8 | x8 | x8 | %43
 x4 F4 | C2 D2 E4 | x8 | B,2 ^A,2 x4 | x8 | x8 | x8 | x8 | x8 | x8 | x8 | x8 | C4 C4 | C4 C2 x2 | %57
 x8 | x8 | x8 | x8 | x8 | x8 | x8 | x8 | x8 | x8 | x8 | x8 | x8 | x8 | x8 | x8 | x8 | x8 | x8 | %76
 E2 x6 | x4 E D3 | x8 | x8 | B,2 E2 DFED | x8 | x8 | x8 | x8 | D2 x6 | x8 | x8 |] %88

